cutejava-front/src/assets/icons/svg/capital.svg

<?xml version="1.0" standalone="no"?><!DOCTYPE svg PUBLIC "-//W3C//DTD SVG 1.1//EN" "http://www.w3.org/Graphics/SVG/1.1/DTD/svg11.dtd"><svg t="1608282861500" class="icon" viewBox="0 0 1024 1024" version="1.1" xmlns="http://www.w3.org/2000/svg" p-id="2235" xmlns:xlink="http://www.w3.org/1999/xlink" width="200" height="200"><defs><style type="text/css"></style></defs><path d="M715.636774 157.432865H306.015099l-204.792775 354.711635 204.792775 354.74776H715.636774l204.792775-354.74776-204.792775-354.711635z m-37.317152 644.831723H343.332251l-167.475622-290.083963 167.475622-290.083962h334.987371l167.475622 290.083962-167.475622 290.083963z" p-id="2236"></path><path d="M651.659352 349.292881l-45.698158-45.698159-98.512947 98.512948-98.476822-98.512948-45.698159 45.698159 108.158329 108.158329H348.49813v64.663797h125.534467v42.663657H348.49813v64.663797h125.534467v108.447329h64.663798v-108.447329h125.534466v-64.663797h-125.534466v-42.663657h125.534466v-64.663797h-120.729838z" p-id="2237"></path></svg>

<svg class="icon" viewBox="0 0 1024 1024" xmlns="http://www.w3.org/2000/svg" width="200" height="200"><defs><style/></defs><path d="M715.637 157.433H306.015L101.222 512.145l204.793 354.747h409.622L920.43 512.144 715.637 157.434zM678.32 802.265H343.332L175.857 512.18l167.475-290.084H678.32L845.795 512.18 678.32 802.265z"/><path d="M651.66 349.293l-45.699-45.698-98.513 98.513-98.477-98.513-45.698 45.698L471.432 457.45H348.498v64.664h125.535v42.664H348.498v64.663h125.535V737.89h64.663V629.442h125.535V564.78H538.696v-42.664h125.535v-64.664H543.5z"/></svg>
